src/assets/svgs/Parallax-Rock-Left.svg

<svg xmlns="http://www.w3.org/2000/svg" width="1920" height="1080" fill="none" xmlns:v="https://vecta.io/nano"><mask id="A" maskUnits="userSpaceOnUse" x="-347" y="-589" width="2614" height="1846"><path d="M2266.11-588.13H-347v1844.22h2613.11V-588.13z" fill="#fff"/></mask><g mask="url(#A)"><path fill-rule="evenodd" d="M-234.514 1081.91c2.296-45.38 199.015-228.504 295.416-246.753s136.957 66.102 137.603 81.404-16.7 32.998-16.7 32.998 60.744-21.163 108.756-13.421 36.597 145.772 36.597 145.772h-561.672 0z" fill="url(#B)"/><path opacity=".6" fill-rule="evenodd" d="M174.176 872.092s16.718 18.821 15.254 44.469-36.338 46.018-126.509 75.442-224.782-4.048-224.782-4.048l-6.882 4.048 200.712 32.477c37.685 7.6 85.685 57.43 85.685 57.43h129.652s-107.221-10.51-116.64-40c-9.419-29.5 51.143-92.351 51.143-92.351s16.803-18.267 16.7-32.998-24.332-44.469-24.332-44.469z" fill="#6b8ec1"/><path opacity=".6" fill-rule="evenodd" d="M1.222 859.063s135.802 7.742 162.942 110.686l-5.745 7.257S131.95 883.467-2.729 859.063h3.951zM132.329 1021.1s108.691-32.707 194.826 60.81v-11.87s-73.929-83.92-192.783-54.25l-2.043 5.31z" fill="#6b8ec1"/></g><defs><linearGradient id="B" x1="46.914" y1="1081.92" x2="46.914" y2="832.587" gradientUnits="userSpaceOnUse"><stop stop-color="#bed3df"/><stop offset=".4" stop-color="#bcbec2"/><stop offset=".751" stop-color="#bbb1b0"/><stop offset="1" stop-color="#bbaca9"/></linearGradient></defs></svg>

<svg width="1920" height="1080" viewBox="0 0 1920 1080" fill="none" xmlns="http://www.w3.org/2000/svg">
<mask id="mask0_44_2008" style="mask-type:luminance" maskUnits="userSpaceOnUse" x="-347" y="-589" width="2614" height="1846">
<path d="M2266.11 -588.13H-347V1256.09H2266.11V-588.13Z" fill="white"/>
</mask>
<g mask="url(#mask0_44_2008)">
<path fill-rule="evenodd" clip-rule="evenodd" d="M-234.514 1081.91C-232.218 1036.53 -35.4987 853.406 60.9016 835.157C157.302 816.909 197.859 901.259 198.505 916.561C199.152 931.868 181.805 949.559 181.805 949.559C181.805 949.559 242.549 928.396 290.561 936.138C338.573 943.879 327.158 1081.91 327.158 1081.91H-234.514V1081.91Z" fill="url(#paint0_linear_44_2008)"/>
<path opacity="0.6" fill-rule="evenodd" clip-rule="evenodd" d="M174.176 872.092C174.176 872.092 190.894 890.913 189.43 916.561C187.963 942.209 153.092 962.579 62.9211 992.003C-27.2528 1021.43 -161.861 987.955 -161.861 987.955L-168.743 992.003C-168.743 992.003 -5.71616 1016.88 31.9685 1024.48C69.6532 1032.08 117.653 1081.91 117.653 1081.91H247.305C247.305 1081.91 140.084 1071.4 130.665 1041.91C121.246 1012.41 181.808 949.559 181.808 949.559C181.808 949.559 198.611 931.292 198.508 916.561C198.402 901.83 174.176 872.092 174.176 872.092Z" fill="#6B8EC1"/>
<path opacity="0.6" fill-rule="evenodd" clip-rule="evenodd" d="M1.22227 859.063C1.22227 859.063 137.024 866.805 164.164 969.749L158.419 977.006C158.419 977.006 131.95 883.467 -2.72876 859.063H1.22227Z" fill="#6B8EC1"/>
<path opacity="0.6" fill-rule="evenodd" clip-rule="evenodd" d="M132.329 1021.1C132.329 1021.1 241.02 988.393 327.155 1081.91V1070.04C327.155 1070.04 253.226 986.12 134.372 1015.79L132.329 1021.1Z" fill="#6B8EC1"/>
</g>
<defs>
<linearGradient id="paint0_linear_44_2008" x1="46.914" y1="1081.92" x2="46.914" y2="832.587" gradientUnits="userSpaceOnUse">
<stop stop-color="#BED3DF"/>
<stop offset="0.4001" stop-color="#BCBEC2"/>
<stop offset="0.7505" stop-color="#BBB1B0"/>
<stop offset="1" stop-color="#BBACA9"/>
</linearGradient>
</defs>
</svg>
